build/images/paw-big2.svg

<svg width="411" height="403" fill="none" xmlns="http://www.w3.org/2000/svg"><path d="M108.719 229.963c50.233-7.243 89.643 55.383 51.997 84.796-16.237 12.685-39.81 11.477-58.239.786-42.562-24.694-36.89-79.37 6.242-85.582zm41.258-20.666c-41.642 32.534-109.269-28.324-78.775-70.84 13.894-19.369 44.3-22.697 68.999-4.653 27.692 20.218 33.186 57.203 9.776 75.493z" fill="#FAC663" fill-opacity=".15"/><path d="M258.869 326.598c4.536-6.115 13.997-15.162 24.624-23.704 11.226-9.038 23.751-17.515 33.105-21.399 25.292-10.454 42.64-46.522 13.751-70.712-26.709-22.36-46.13-4.725-70.88-26.355-24.999-21.872-53.781-19.366-71.579-3.899-16.47 14.317-23.523 39.739-9.413 67.187 15.042 29.243-6.737 43.772 8.499 75.082 16.478 33.924 55.673 25.695 71.893 3.8zM223.267 152.04c-11.779 9.202-27.231 10.276-41.019 4.214-40.996-18.028-47.171-82.502-8.638-97.766 48.723-19.323 91.276 61.035 49.657 93.552z" fill="#FAC663" fill-opacity=".15"/><path d="M279.263 184.915c-38.889-22.216-38.367-86.875 1.71-97.97 48.273-13.366 83.14 64.408 43.051 95.73-12.866 10.052-29.978 10.686-44.761 2.24z" fill="#FAC663" fill-opacity=".15"/></svg>

<svg width="411" height="403" viewBox="0 0 411 403" fill="none" xmlns="http://www.w3.org/2000/svg">
<path d="M108.719 229.963C158.952 222.72 198.362 285.346 160.716 314.759C144.479 327.444 120.906 326.236 102.477 315.545C59.9154 290.851 65.5865 236.175 108.719 229.963Z" fill="#FAC663" fill-opacity="0.15"/>
<path d="M149.977 209.297C108.335 241.831 40.708 180.973 71.2017 138.457C85.0959 119.088 115.502 115.76 140.201 133.804C167.893 154.022 173.387 191.007 149.977 209.297Z" fill="#FAC663" fill-opacity="0.15"/>
<path d="M258.869 326.598C263.405 320.483 272.866 311.436 283.493 302.894C294.719 293.856 307.244 285.379 316.598 281.495C341.89 271.041 359.238 234.973 330.349 210.783C303.64 188.423 284.219 206.058 259.469 184.428C234.47 162.556 205.688 165.062 187.89 180.529C171.42 194.846 164.367 220.268 178.477 247.716C193.519 276.959 171.74 291.488 186.976 322.798C203.454 356.722 242.649 348.493 258.869 326.598Z" fill="#FAC663" fill-opacity="0.15"/>
<path d="M223.267 152.04C211.488 161.242 196.036 162.316 182.248 156.254C141.252 138.226 135.077 73.7523 173.61 58.4881C222.333 39.1648 264.886 119.523 223.267 152.04Z" fill="#FAC663" fill-opacity="0.15"/>
<path d="M279.263 184.915C240.374 162.699 240.896 98.0402 280.973 86.9451C329.246 73.5786 364.113 151.353 324.024 182.675C311.158 192.727 294.046 193.361 279.263 184.915Z" fill="#FAC663" fill-opacity="0.15"/>
</svg>
